X:5028
T:Up With The Lark
R:jig
C:Aidan Crossey
M:6/8
K:D
|:FEF DFA|dcd Bcd|FEF DFA|GFG EFG|
FEF DFA|dcd Bcd|fed cAG|F2D D3:|
|:d2e fed|d2e fed|g2e cBA|g2e cBA|
d2e fed|d2e fed|gfe dcB|AFA d3:|
